svg/LeftHanded/pirate.svg

<?xml version="1.0" encoding="UTF-8" standalone="no"?>
<!-- Created with Inkscape (http://www.inkscape.org/) -->

<svg
   xmlns:dc="http://purl.org/dc/elements/1.1/"
   xmlns:cc="http://creativecommons.org/ns#"
   xmlns:rdf="http://www.w3.org/1999/02/22-rdf-syntax-ns#"
   xmlns:svg="http://www.w3.org/2000/svg"
   xmlns="http://www.w3.org/2000/svg"
   xmlns:xlink="http://www.w3.org/1999/xlink"
   version="1.0"
   width="500"
   height="500"
   viewBox="0 0 1000 1000"
   id="page"
   xml:space="preserve"><metadata
     id="metadata14"><rdf:RDF><cc:Work
         rdf:about=""><dc:format>image/svg+xml</dc:format><dc:type
           rdf:resource="http://purl.org/dc/dcmitype/StillImage" /><dc:title></dc:title></cc:Work></rdf:RDF></metadata><defs
     id="defs38"><linearGradient
       id="linearGradient2218"><stop
         id="stop2220"
         style="stop-color:#999999;stop-opacity:1"
         offset="0" /><stop
         id="stop2222"
         style="stop-color:#555555;stop-opacity:1"
         offset="1" /></linearGradient><linearGradient
       x1="199.23193"
       y1="154.51941"
       x2="199.23193"
       y2="654.62036"
       id="linearGradient1323"
       xlink:href="#linearGradient2218"
       gradientUnits="userSpaceOnUse" /><linearGradient
       x1="199.23193"
       y1="154.51941"
       x2="199.23193"
       y2="654.62036"
       id="linearGradient1323-1"
       xlink:href="#linearGradient2218-7"
       gradientUnits="userSpaceOnUse"
       gradientTransform="translate(-262.71187,-752.20978)" /><linearGradient
       id="linearGradient2218-7"><stop
         id="stop2220-5"
         style="stop-color:#999999;stop-opacity:1"
         offset="0" /><stop
         id="stop2222-5"
         style="stop-color:#555555;stop-opacity:1"
         offset="1" /></linearGradient><linearGradient
       x1="199.23193"
       y1="154.51941"
       x2="199.23193"
       y2="654.62036"
       id="linearGradient3043"
       xlink:href="#linearGradient2218-7"
       gradientUnits="userSpaceOnUse"
       gradientTransform="scale(0.5,0.5)" /><filter
       x="-0.2190643"
       y="-0.26536015"
       width="1.4381286"
       height="1.5307204"
       color-interpolation-filters="sRGB"
       id="filter3814"><feGaussianBlur
         id="feGaussianBlur3816"
         stdDeviation="26.541099" /></filter></defs><path
     d="m 382.28125,458.375 c -8.55862,0.009 -16.2371,0.37985 -20.4375,1.28125 -15.05854,3.2312 -44.78605,11.63839 -52.125,14.84375 l -0.90625,0.3125 c -7.22307,2.90008 -26.06885,13.31716 -37.0625,21.625 -10.5568,7.97735 -22.34685,18.07455 -28.15625,30.5 -13.06202,27.93835 -9.06992,67.92555 9.8125,91.53125 9.59098,11.98975 21.28379,23.78645 34.5625,31.09375 16.3633,9.0031 34.13126,11.1455 52.1875,12.125 -0.21726,10.5235 -0.34169,13.6837 0.375,21.03125 0.36269,3.72155 0.36609,8.59635 0.5625,12.3125 15.68601,3.99375 34.35755,3.8046 50.40625,2.71875 -1.17869,-4.3232 -1.45556,-28.9746 -2.25,-39.34375 1.12012,10.57797 3.60121,32.25366 3.75,36.78125 14.38879,0.4657 28.8762,2.06365 43.3125,1.15625 0.27982,-2.83331 -0.67039,-18.50793 -1.96875,-30.875 1.49414,11.69571 3.35101,27.94007 2.9375,32.875 8.32736,-1.0408 53.8675,0.19935 51.84375,-2.40625 -0.72132,-0.92845 -12.16359,-47.18065 -13.8125,-53.5 4.19815,-0.27705 22.27852,-8.761 25.625,-12.8125 10.2874,-12.45125 20.5408,-22.92035 24.28125,-39.375 5.5162,-24.2673 -5.02645,-46.35275 -14.65625,-67.9375 C 507.0208,514.37305 484.77522,488.82485 478,483.75 465.72071,474.55278 427.0212,462.34608 420.71875,461 c -7.41637,-1.58382 -24.17313,-2.63948 -38.4375,-2.625 z"
     transform="matrix(2.4,0,0,2.4,-415.24543,-863.58494)"
     id="path3659-0"
     style="opacity:0.15;fill:#111111;fill-opacity:1;stroke:none;filter:url(#filter3814)" /><g
     id="g2991"
     style="opacity:0.75"><path
       d="m 354.93715,197.39014 c -14.44614,5.80016 -52.14379,26.6512 -74.13109,43.26689 -21.1136,15.95466 -44.69186,36.17232 -56.31066,61.02314 -26.12403,55.87678 -18.15299,135.80515 19.61186,183.01654 19.18197,23.97948 42.56672,47.61522 69.12413,62.22981 32.7266,18.00624 68.25159,22.25841 104.36406,24.21744 -0.43453,21.04694 -0.70916,27.38434 0.72422,42.07946 0.72538,7.4431 0.76593,17.2058 1.15875,24.63809 31.37202,7.98754 68.71393,7.58011 100.81133,5.40836 -2.70337,-9.91533 -2.9861,-73.29171 -5.24103,-85.75017 1.708,17.18056 7.93281,70.6368 8.26189,80.65068 28.77758,0.93144 57.75794,4.12718 86.63054,2.31238 0.79027,-8.00197 -3.3233,-67.52279 -7.37893,-86.75252 1.01275,5.69681 10.54927,75.47308 9.27001,90.74028 16.65473,-2.08161 107.75572,0.40383 103.70821,-4.80743 -1.44265,-1.85687 -24.33377,-94.34586 -27.63158,-106.9846 8.39631,-0.55405 44.57251,-17.53751 51.26546,-25.64044 20.57478,-24.9025 41.06729,-45.80882 48.54819,-78.7181 11.03246,-48.53463 -10.02668,-92.75099 -29.28627,-135.92053 -7.08345,-15.87895 -51.62352,-66.98796 -65.17395,-77.13765 -24.55857,-18.39444 -101.93184,-42.79096 -114.53673,-45.48312 -23.73238,-5.06824 -95.32233,-7.45513 -117.72446,-2.64769 -30.11709,6.46239 -89.60968,23.23552 -104.28758,29.64623"
       id="path3659"
       style="fill:url(#linearGradient1323);fill-opacity:1;stroke:#000000;stroke-width:20;stroke-linecap:round;stroke-linejoin:round;stroke-miterlimit:3.13260007;stroke-dasharray:none" /><path
       d="m 510.82623,392.28224 c -2.43685,1.57323 -3.68599,4.96127 -6.17962,8.01279 -2.75551,3.37241 -17.43456,-5.89512 -19.98845,-1.30161 -5.62574,10.11844 -10.85286,25.22099 -14.38821,39.36085 -2.70337,10.81672 -5.94903,27.02498 -4.63501,32.85038 2.38703,10.57756 26.058,8.30725 41.72199,7.55488 24.33029,-1.167 59.08818,-8.75673 61.77417,-15.39219 3.59213,-14.49802 -19.00352,-42.44122 -28.27352,-50.55376 -8.4079,-7.35777 -19.60259,-18.92926 -30.03135,-20.53134"
       id="path3661"
       style="fill:#000000;fill-opacity:1;stroke:#000000;stroke-width:5;stroke-linecap:round;stroke-linejoin:round;stroke-miterlimit:3.13260007;stroke-dasharray:none" /><path
       d="m 597.34668,288.12081 c -27.21326,0 -44.59105,9.72784 -48.6038,39.06038 -2.72307,19.90758 7.41021,43.8546 22.04523,57.02577 21.35115,19.2141 45.79847,35.23487 74.93642,37.32009 8.40095,0.60093 30.99659,-2.40371 39.55397,-11.05589 8.02203,-8.11134 9.69295,-23.19706 10.27232,-31.3096 1.31287,-18.38002 -3.34068,-39.15534 -12.1159,-55.37201 -12.79724,-23.65016 -54.23301,-35.66874 -86.08824,-35.66874"
       id="path3663"
       style="fill:#000000;fill-opacity:1;stroke:#000000;stroke-width:5;stroke-linecap:round;stroke-linejoin:round;stroke-miterlimit:3.13260007;stroke-dasharray:none" /><path
       d="m 399.04269,286.35287 c -13.36619,-1.15498 -28.12289,1.54199 -41.08931,6.0141 -23.95717,8.26398 -43.45084,18.07114 -55.66639,39.95697 -8.5342,15.29004 -9.11358,39.92813 0,54.08362 7.61299,11.82388 22.19355,22.93986 34.17967,29.61258 17.46006,9.72063 34.5864,8.67862 52.59339,4.60672 22.59564,-5.1079 44.63508,-18.41487 60.64207,-36.61821 11.49944,-13.07742 19.31174,-64.63833 10.17499,-75.72187 -7.44961,-9.03797 -50.40566,-21.93391 -60.83442,-21.93391"
       id="path3665"
       style="fill:#000000;fill-opacity:1;stroke:#000000;stroke-width:5;stroke-linecap:round;stroke-linejoin:round;stroke-miterlimit:3.13260007;stroke-dasharray:none" /></g></svg>

<?xml version="1.0" encoding="UTF-8" standalone="no"?>
<!-- Created with Inkscape (http://www.inkscape.org/) -->
<svg
   xmlns:dc="http://purl.org/dc/elements/1.1/"
   xmlns:cc="http://creativecommons.org/ns#"
   xmlns:rdf="http://www.w3.org/1999/02/22-rdf-syntax-ns#"
   xmlns:svg="http://www.w3.org/2000/svg"
   xmlns="http://www.w3.org/2000/svg"
   xmlns:xlink="http://www.w3.org/1999/xlink"
   xmlns:sodipodi="http://sodipodi.sourceforge.net/DTD/sodipodi-0.dtd"
   xmlns:inkscape="http://www.inkscape.org/namespaces/inkscape"
   version="1.0"
   width="500"
   height="500"
   viewBox="0 0 1000 1000"
   id="page"
   xml:space="preserve"
   sodipodi:version="0.32"
   inkscape:version="0.46"
   sodipodi:docname="pirate.svg"
   inkscape:output_extension="org.inkscape.output.svg.inkscape"><metadata
     id="metadata3549"><rdf:RDF><cc:Work
         rdf:about=""><dc:format>image/svg+xml</dc:format><dc:type
           rdf:resource="http://purl.org/dc/dcmitype/StillImage" /></cc:Work></rdf:RDF></metadata><sodipodi:namedview
     inkscape:window-height="783"
     inkscape:window-width="640"
     inkscape:pageshadow="2"
     inkscape:pageopacity="0.0"
     guidetolerance="10.0"
     gridtolerance="10.0"
     objecttolerance="10.0"
     borderopacity="1.0"
     bordercolor="#666666"
     pagecolor="#ffffff"
     id="base"
     showgrid="false"
     inkscape:zoom="1.108"
     inkscape:cx="250"
     inkscape:cy="250"
     inkscape:window-x="103"
     inkscape:window-y="284"
     inkscape:current-layer="page" /><defs
     id="defs38"><linearGradient
       id="linearGradient2218"><stop
         style="stop-color:#999999;stop-opacity:1"
         offset="0"
         id="stop2220" /><stop
         style="stop-color:#555555;stop-opacity:1"
         offset="1"
         id="stop2222" /></linearGradient><linearGradient
       x1="199.23193"
       y1="154.51941"
       x2="199.23193"
       y2="654.62036"
       id="linearGradient1323"
       xlink:href="#linearGradient2218"
       gradientUnits="userSpaceOnUse" /></defs><path
     d="M 354.93715,197.39014 C 340.49101,203.1903 302.79336,224.04134 280.80606,240.65703 C 259.69246,256.61169 236.1142,276.82935 224.4954,301.68017 C 198.37137,357.55695 206.34241,437.48532 244.10726,484.69671 C 263.28923,508.67619 286.67398,532.31193 313.23139,546.92652 C 345.95799,564.93276 381.48298,569.18493 417.59545,571.14396 C 417.16092,592.1909 416.88629,598.5283 418.31967,613.22342 C 419.04505,620.66652 419.0856,630.42922 419.47842,637.86151 C 450.85044,645.84905 488.19235,645.44162 520.28975,643.26987 C 517.58638,633.35454 517.30365,569.97816 515.04872,557.5197 C 516.75672,574.70026 522.98153,628.1565 523.31061,638.17038 C 552.08819,639.10182 581.06855,642.29756 609.94115,640.48276 C 610.73142,632.48079 606.61785,572.95997 602.56222,553.73024 C 603.57497,559.42705 613.11149,629.20332 611.83223,644.47052 C 628.48696,642.38891 719.58795,644.87435 715.54044,639.66309 C 714.09779,637.80622 691.20667,545.31723 687.90886,532.67849 C 696.30517,532.12444 732.48137,515.14098 739.17432,507.03805 C 759.7491,482.13555 780.24161,461.22923 787.72251,428.31995 C 798.75497,379.78532 777.69583,335.56896 758.43624,292.39942 C 751.35279,276.52047 706.81272,225.41146 693.26229,215.26177 C 668.70372,196.86733 591.33045,172.47081 578.72556,169.77865 C 554.99318,164.71041 483.40323,162.32352 461.0011,167.13096 C 430.88401,173.59335 371.39142,190.36648 356.71352,196.77719"
     style="fill:url(#linearGradient1323);fill-opacity:1;stroke:#000000;stroke-width:20;stroke-linecap:round;stroke-linejoin:round;stroke-miterlimit:3.13260007;stroke-dasharray:none"
     id="path3659" /><path
     d="M 510.82623,392.28224 C 508.38938,393.85547 507.14024,397.24351 504.64661,400.29503 C 501.8911,403.66744 487.21205,394.39991 484.65816,398.99342 C 479.03242,409.11186 473.8053,424.21441 470.26995,438.35427 C 467.56658,449.17099 464.32092,465.37925 465.63494,471.20465 C 468.02197,481.78221 491.69294,479.5119 507.35693,478.75953 C 531.68722,477.59253 566.44511,470.0028 569.1311,463.36734 C 572.72323,448.86932 550.12758,420.92612 540.85758,412.81358 C 532.44968,405.45581 521.25499,393.88432 510.82623,392.28224"
     style="fill:#000000;fill-opacity:1;stroke:#000000;stroke-width:5;stroke-linecap:round;stroke-linejoin:round;stroke-miterlimit:3.13260007;stroke-dasharray:none"
     id="path3661" /><path
     d="M 597.34668,288.12081 C 570.13342,288.12081 552.75563,297.84865 548.74288,327.18119 C 546.01981,347.08877 556.15309,371.03579 570.78811,384.20696 C 592.13926,403.42106 616.58658,419.44183 645.72453,421.52705 C 654.12548,422.12798 676.72112,419.12334 685.2785,410.47116 C 693.30053,402.35982 694.97145,387.2741 695.55082,379.16156 C 696.86369,360.78154 692.21014,340.00622 683.43492,323.78955 C 670.63768,300.13939 629.20191,288.12081 597.34668,288.12081"
     style="fill:#000000;fill-opacity:1;stroke:#000000;stroke-width:5;stroke-linecap:round;stroke-linejoin:round;stroke-miterlimit:3.13260007;stroke-dasharray:none"
     id="path3663" /><path
     d="M 399.04269,286.35287 C 385.6765,285.19789 370.9198,287.89486 357.95338,292.36697 C 333.99621,300.63095 314.50254,310.43811 302.28699,332.32394 C 293.75279,347.61398 293.17341,372.25207 302.28699,386.40756 C 309.89998,398.23144 324.48054,409.34742 336.46666,416.02014 C 353.92672,425.74077 371.05306,424.69876 389.06005,420.62686 C 411.65569,415.51896 433.69513,402.21199 449.70212,384.00865 C 461.20156,370.93123 469.01386,319.37032 459.87711,308.28678 C 452.4275,299.24881 409.47145,286.35287 399.04269,286.35287"
     style="fill:#000000;fill-opacity:1;stroke:#000000;stroke-width:5;stroke-linecap:round;stroke-linejoin:round;stroke-miterlimit:3.13260007;stroke-dasharray:none"
     id="path3665" /></svg>
